projects/etcd/icon/color/etcd-icon-color.svg

<svg id="Layer_1" data-name="Layer 1" xmlns="http://www.w3.org/2000/svg" viewBox="0 0 500 500"><defs><style>.cls-1{fill:#419eda;}</style></defs><title>etcd-icon-color</title><path class="cls-1" d="M228.17512,224.68361A31.99351,31.99351,0,1,1,196.168,192.69827,32.011,32.011,0,0,1,228.17512,224.68361Z"/><path class="cls-1" d="M269.54475,224.68361a32.00717,32.00717,0,1,0,32.00716-31.98534A31.98775,31.98775,0,0,0,269.54475,224.68361Z"/><path class="cls-1" d="M487.3712,259.39854c-2.32017.18559-4.613.26756-7.06962.26756a92.36233,92.36233,0,0,1-40.62167-9.45526A377.2088,377.2088,0,0,0,445.15,178.35178a371.80769,371.80769,0,0,0-46.50667-55.11035A92.39558,92.39558,0,0,1,431.41476,88.139l6.016-3.72869-4.69489-5.3009a244.90574,244.90574,0,0,0-85.5234-62.37648L340.70516,13.905l-1.65409,6.86211A92.14425,92.14425,0,0,1,315.8605,62.86283a371.92829,371.92829,0,0,0-67.0059-27.60158A370.62392,370.62392,0,0,0,181.947,62.81918,91.91527,91.91527,0,0,1,158.84923,20.8163l-1.68142-6.88394-6.48552,2.81688A247.23165,247.23165,0,0,0,65.16439,79.1039L60.475,84.4048,66.48012,88.128a92.24881,92.24881,0,0,1,32.695,34.91685A374.63069,374.63069,0,0,0,52.7503,177.95327a376.95559,376.95559,0,0,0,5.32814,72.334,92.11523,92.11523,0,0,1-40.376,9.37346c-2.48393,0-4.82042-.082-7.086-.26756l-7.05346-.55162L4.218,265.884A243.41269,243.41269,0,0,0,37.115,366.562l3.58125,6.09792L46.068,368.085a92.0523,92.0523,0,0,1,43.5915-20.40642,373.96965,373.96965,0,0,0,37.308,60.76062,377.71655,377.71655,0,0,0,70.69086,17.382,91.86959,91.86959,0,0,1-5.885,48.23174l-2.68594,6.54008,6.90044,1.52856a246.35463,246.35463,0,0,0,52.96487,5.85768l52.954-5.85768,6.90585-1.52856-2.675-6.54008a91.75458,91.75458,0,0,1-5.86859-48.28639,377.7839,377.7839,0,0,0,70.407-17.32747,372.29973,372.29973,0,0,0,37.3353-60.81526A92.23309,92.23309,0,0,1,451.821,368.052l5.37729,4.553,3.58666-6.04878a242.84389,242.84389,0,0,0,32.85875-100.67265l.65507-7.03688Zm-162.727,86.05294a285.88356,285.88356,0,0,1-151.62857,0A290.12369,290.12369,0,0,1,126.87471,202.0664a288.67529,288.67529,0,0,1,54.9575-52.3153,293.06544,293.06544,0,0,1,67.02772-36.46173,293.97592,293.97592,0,0,1,66.89128,36.3636,290.88636,290.88636,0,0,1,55.19765,52.67549,292.25328,292.25328,0,0,1-13.8172,74.68144A293.72561,293.72561,0,0,1,324.64419,345.45148Z"/></svg>

<svg xmlns="http://www.w3.org/2000/svg" role="img" viewBox="-6.31 3.69 510.12 493.62"><defs><style>.cls-1{fill:#419eda}</style></defs><path d="M228.175 224.684a31.994 31.994 0 1 1-32.007-31.986 32.011 32.011 0 0 1 32.007 31.986zm41.37 0a32.007 32.007 0 1 0 32.007-31.986 31.988 31.988 0 0 0-32.007 31.986z" class="cls-1"/><path d="M487.371 259.399a87.82 87.82 0 0 1-7.07.267 92.362 92.362 0 0 1-40.621-9.455 377.209 377.209 0 0 0 5.47-71.86 371.808 371.808 0 0 0-46.507-55.11 92.396 92.396 0 0 1 32.772-35.102l6.016-3.729-4.695-5.3a244.906 244.906 0 0 0-85.524-62.377l-6.507-2.828-1.654 6.862a92.144 92.144 0 0 1-23.19 42.096 371.928 371.928 0 0 0-67.006-27.602 370.624 370.624 0 0 0-66.908 27.558 91.915 91.915 0 0 1-23.098-42.003l-1.681-6.884-6.486 2.817a247.232 247.232 0 0 0-85.518 62.355l-4.689 5.3 6.005 3.724a92.249 92.249 0 0 1 32.695 34.917 374.63 374.63 0 0 0-46.425 54.908 376.956 376.956 0 0 0 5.328 72.334 92.115 92.115 0 0 1-40.376 9.374 86.36 86.36 0 0 1-7.086-.268l-7.053-.551.655 7.042a243.413 243.413 0 0 0 32.897 100.678l3.581 6.098 5.372-4.575a92.052 92.052 0 0 1 43.592-20.406 373.97 373.97 0 0 0 37.308 60.76 377.717 377.717 0 0 0 70.69 17.382 91.87 91.87 0 0 1-5.885 48.232l-2.686 6.54 6.9 1.529a246.355 246.355 0 0 0 52.966 5.857l52.954-5.857 6.906-1.529-2.675-6.54a91.755 91.755 0 0 1-5.869-48.286 377.784 377.784 0 0 0 70.407-17.328 372.3 372.3 0 0 0 37.335-60.815 92.233 92.233 0 0 1 43.81 20.428l5.377 4.553 3.587-6.049a242.844 242.844 0 0 0 32.859-100.672l.655-7.037zM324.644 345.45a285.884 285.884 0 0 1-151.628 0 290.124 290.124 0 0 1-46.141-143.385 288.675 288.675 0 0 1 54.957-52.315 293.065 293.065 0 0 1 67.028-36.462 293.976 293.976 0 0 1 66.891 36.364 290.886 290.886 0 0 1 55.198 52.675 292.253 292.253 0 0 1-13.817 74.682 293.726 293.726 0 0 1-32.488 68.441z" class="cls-1"/></svg>
